Numix-GalliumOS/32/actions/stock_video-conferencing.svg

<?xml version="1.0" encoding="UTF-8" standalone="no"?>
<!-- Created with Inkscape (http://www.inkscape.org/) -->

<svg
   xmlns:dc="http://purl.org/dc/elements/1.1/"
   xmlns:cc="http://creativecommons.org/ns#"
   xmlns:rdf="http://www.w3.org/1999/02/22-rdf-syntax-ns#"
   xmlns:svg="http://www.w3.org/2000/svg"
   xmlns="http://www.w3.org/2000/svg"
   xmlns:sodipodi="http://sodipodi.sourceforge.net/DTD/sodipodi-0.dtd"
   xmlns:inkscape="http://www.inkscape.org/namespaces/inkscape"
   id="svg2"
   version="1.1"
   inkscape:version="0.91 r"
   xml:space="preserve"
   width="32"
   height="32"
   viewBox="0 0 32 32"
   sodipodi:docname="stock_video-conferencing.svg"><metadata
     id="metadata8"><rdf:RDF><cc:Work
         rdf:about=""><dc:format>image/svg+xml</dc:format><dc:type
           rdf:resource="http://purl.org/dc/dcmitype/StillImage" /><dc:title /></cc:Work></rdf:RDF></metadata><defs
     id="defs6" /><sodipodi:namedview
     pagecolor="#ffffff"
     bordercolor="#666666"
     borderopacity="1"
     objecttolerance="10"
     gridtolerance="10"
     guidetolerance="10"
     inkscape:pageopacity="0"
     inkscape:pageshadow="2"
     inkscape:window-width="1920"
     inkscape:window-height="1056"
     id="namedview4"
     showgrid="true"
     inkscape:zoom="16"
     inkscape:cx="19.48411"
     inkscape:cy="14.082874"
     inkscape:window-x="0"
     inkscape:window-y="24"
     inkscape:window-maximized="1"
     inkscape:current-layer="g10"><inkscape:grid
       type="xygrid"
       id="grid4142" /></sodipodi:namedview><g
     id="g10"
     inkscape:groupmode="layer"
     inkscape:label="stock_video-conferencing"
     transform="matrix(1.25,0,0,-1.25,0,32)"><path
       inkscape:connector-curvature="0"
       id="path14"
       style="fill:#2d2d2d;fill-opacity:1;fill-rule:nonzero;stroke:none"
       d="M 9.6,8 16,8 16,1.6 9.6,1.6 9.6,8 Z" /><path
       inkscape:connector-curvature="0"
       id="path16"
       style="fill:#888888;fill-opacity:1;fill-rule:nonzero;stroke:none"
       d="M 12.794998,25.6 C 7.497343,25.6 3.2,21.304896 3.2,16 3.2,10.705103 7.497343,6.4 12.794998,6.4 18.102658,6.4 22.4,10.705103 22.4,16 c 0,5.304896 -4.297342,9.6 -9.605002,9.6 z m 0,-5.436868 c 2.298719,0 4.165302,-1.865611 4.165302,-4.163132 0,-2.295522 -1.866583,-4.155134 -4.165302,-4.155134 -2.296717,0 -4.1572986,1.859612 -4.1572986,4.155134 0,2.297521 1.8605816,4.163132 4.1572986,4.163132 z" /><path
       inkscape:connector-curvature="0"
       id="path18"
       style="fill:#888888;fill-opacity:1;fill-rule:nonzero;stroke:none"
       d="m 6.5799158,2.5575666 c 0.179916,0.8565778 12.2602522,0.8565778 12.4401682,0 C 19.2,1.7009886 19.2,0 19.2,0 L 6.4,0 c 0,0 0,1.7009886 0.179916,2.5575666 z" /><path
       inkscape:connector-curvature="0"
       id="path20"
       style="fill:#2d2d2d;fill-opacity:1;fill-rule:nonzero;stroke:none"
       d="M 12.795001,20.8 C 10.147553,20.8 8,18.650448 8,15.995001 8,13.347553 10.147553,11.2 12.795001,11.2 15.452447,11.2 17.6,13.347553 17.6,15.995001 17.6,18.650448 15.452447,20.8 12.795001,20.8 Z m 0,-1.601666 c 1.773631,0 3.203333,-1.4377 3.203333,-3.203333 0,-1.765632 -1.429702,-3.193335 -3.203333,-3.193335 -1.763633,0 -3.1933346,1.427703 -3.1933346,3.193335 0,1.765633 1.4297016,3.203333 3.1933346,3.203333 z" /></g></svg>

<svg xmlns="http://www.w3.org/2000/svg" viewBox="0 0 32 32">
 <g transform="matrix(1.25,0,0,-1.25,0,32)">
  <path d="m 9.6 8 6.4 0 0 -6.4 -6.4 0 0 6.4" style="fill:#2d2d2d;fill-opacity:1;stroke:none;fill-rule:nonzero"/>
  <path d="m 12.795 25.6 c -5.298 0 -9.595 -4.295 -9.595 -9.6 0 -5.295 4.297 -9.6 9.595 -9.6 5.308 0 9.605 4.305 9.605 9.6 c 0 5.305 -4.297 9.6 -9.605 9.6 z m 0 -5.437 c 2.299 0 4.165 -1.866 4.165 -4.163 0 -2.296 -1.867 -4.155 -4.165 -4.155 -2.297 0 -4.157 1.86 -4.157 4.155 0 2.298 1.861 4.163 4.157 4.163 z" style="fill:#888;fill-opacity:1;stroke:none;fill-rule:nonzero"/>
  <path d="m 6.58 2.558 c 0.18 0.857 12.26 0.857 12.44 0 c 0.18 -0.857 0.18 -2.558 0.18 -2.558 l -12.8 0 c 0 0 0 1.701 0.18 2.558 z" style="fill:#888;fill-opacity:1;stroke:none;fill-rule:nonzero"/>
  <path d="m 12.795 20.8 c -2.647 0 -4.795 -2.15 -4.795 -4.805 0 -2.647 2.148 -4.795 4.795 -4.795 2.657 0 4.805 2.148 4.805 4.795 0 2.655 -2.148 4.805 -4.805 4.805 m 0 -1.602 c 1.774 0 3.203 -1.438 3.203 -3.203 0 -1.766 -1.43 -3.193 -3.203 -3.193 -1.764 0 -3.193 1.428 -3.193 3.193 0 1.766 1.43 3.203 3.193 3.203 z" style="fill:#2d2d2d;fill-opacity:1;stroke:none;fill-rule:nonzero"/>
 </g>
</svg>
